dist/icons/svgs/arrow-left-from-line-solid.svg

<svg xmlns="http://www.w3.org/2000/svg" width="24" height="24" fill="currentcolor" class="icon-arrow-left-from-line-solid" viewBox="0 0 24 24">
  <path d="M18.25 5.75C18.25 5.08594 18.7969 4.5 19.5 4.5C20.1641 4.5 20.75 5.08594 20.75 5.75V18.25C20.75 18.9531 20.1641 19.5 19.5 19.5C18.7969 19.5 18.25 18.9531 18.25 18.25V5.75ZM3.60156 12.8984C3.09375 12.4297 3.09375 11.6094 3.60156 11.1406L8.60156 6.14062C9.07031 5.63281 9.89062 5.63281 10.3594 6.14062C10.8672 6.60938 10.8672 7.42969 10.3594 7.89844L7.50781 10.75H14.5C15.1641 10.75 15.75 11.3359 15.75 12C15.75 12.7031 15.1641 13.25 14.5 13.25H7.50781L10.3594 16.1406C10.8672 16.6094 10.8672 17.4297 10.3594 17.8984C9.89062 18.4062 9.07031 18.4062 8.60156 17.8984L3.60156 12.8984Z"/>
</svg>

<svg xmlns="http://www.w3.org/2000/svg" width="24" height="24" fill="currentColor" class="icon-arrow-left-from-line-solid" viewBox="0 0 24 24">
  <path d="M18.25 5.75c0-.664.547-1.25 1.25-1.25.664 0 1.25.586 1.25 1.25v12.5c0 .703-.586 1.25-1.25 1.25-.703 0-1.25-.547-1.25-1.25zM3.602 12.898a1.205 1.205 0 0 1 0-1.757l5-5a1.205 1.205 0 0 1 1.757 0 1.203 1.203 0 0 1 0 1.757L7.508 10.75H14.5c.664 0 1.25.586 1.25 1.25 0 .703-.586 1.25-1.25 1.25H7.508l2.851 2.89c.508.47.508 1.29 0 1.758a1.205 1.205 0 0 1-1.757 0z"/>
</svg>
